icons/modus-outlined/arrow-down.svg

<svg xmlns="http://www.w3.org/2000/svg" width="24" height="24" fill="currentColor" viewBox="0 0 24 24">
  <path d="m12,20.79c-.38,0-.77-.15-1.06-.44l-6.79-6.79c-.43-.43-.56-1.07-.33-1.63s.78-.93,1.39-.93h2.79v-6.5c0-.83.67-1.5,1.5-1.5h5c.83,0,1.5.67,1.5,1.5v6.5h2.79c.61,0,1.15.36,1.39.93s.11,1.2-.33,1.63l-6.79,6.79c-.29.29-.68.44-1.06.44Zm-5.59-7.79l5.59,5.59,5.59-5.59h-3.59V5h-4v8h-3.59Z"/>
</svg>

<svg xmlns="http://www.w3.org/2000/svg" width="24" height="24" fill="currentColor" viewBox="0 0 24 24">
  <path d="M12 20.79c-.38 0-.77-.15-1.06-.44l-6.79-6.79A1.497 1.497 0 0 1 5.21 11H8V4.5C8 3.67 8.67 3 9.5 3h5c.83 0 1.5.67 1.5 1.5V11h2.79c.61 0 1.15.36 1.39.93s.11 1.2-.33 1.63l-6.79 6.79c-.29.29-.68.44-1.06.44M6.41 13 12 18.59 17.59 13H14V5h-4v8z"/>
</svg>
